X: 1
T: Leitrim Thrush, The
Z: Ralf Brockhausen
S: https://thesession.org/tunes/822#setting42884
R: reel
M: 4/4
L: 1/8
K: Dmaj
~B3c dBAB|BGAG FAAF|B2Bc dcde|faag fded|
~B3c dBAB|BGAG FAAF|B2Bc dcde|faag fddf||
a2fd (3Bcd ed|fded (3Bcd ef|a2fd (3Bcd ed|
egfd eddf|
a2fd (3Bcd ed|fded (3Bcd ef|~a3f e2dA|
(3Bcd ag fdd2 "_DC"||

